svg/material-icons/swipe_up/materialiconsoutlined/20px.svg

<svg xmlns="http://www.w3.org/2000/svg" width="20" height="20" viewBox="0 0 20 20"><path d="M4 5.5c0 2.03.75 3.88 2 5.29l-.71.71A8.976 8.976 0 0 1 3 5.5c0-.93.14-1.82.4-2.66L1.71 4.53 1 3.83 3.83 1l2.83 2.83-.72.7L4.4 2.99C4.14 3.78 4 4.62 4 5.5zm12.79 2.57L13.6 8l-.91.41-1.22-2.74a2.005 2.005 0 0 0-2.64-1.03 2 2 0 0 0-1.02 2.64l2.23 5.03-1.19.21c-.46.08-.94.38-1.15.94l-.71 1.84L13 17.63c.37.14.78.13 1.15-.03l4.81-2.13c.68-.3 1.04-1.06.84-1.78l-1.18-4.17c-.23-.83-.97-1.41-1.83-1.45zm1.56 6.02-4.81 2.13-4.62-1.78.18-.44 3.09-.54-3.01-6.78c-.11-.25 0-.55.25-.66.25-.11.55 0 .66.25l1.82 4.11 1.96-.87 2.84.05c.22.01.4.16.46.36l1.18 4.17z"/></svg>

<svg xmlns="http://www.w3.org/2000/svg" enable-background="new 0 0 20 20" height="20" viewBox="0 0 20 20" width="20"><g><rect fill="none" height="20" width="20" x="0"/></g><g><path d="M4,5.5c0,2.03,0.75,3.88,2,5.29L5.29,11.5C3.87,9.91,3,7.81,3,5.5c0-0.93,0.14-1.82,0.4-2.66L1.71,4.53L1,3.83L3.83,1 l2.83,2.83L5.94,4.53L4.4,2.99C4.14,3.78,4,4.62,4,5.5z M16.79,8.07L13.6,8l-0.91,0.41l-1.22-2.74C11.02,4.65,9.84,4.2,8.83,4.64 C7.82,5.09,7.36,6.27,7.81,7.28l2.23,5.03l-1.19,0.21C8.39,12.6,7.91,12.9,7.7,13.46L6.99,15.3L13,17.63 c0.37,0.14,0.78,0.13,1.15-0.03l4.81-2.13c0.68-0.3,1.04-1.06,0.84-1.78l-1.18-4.17C18.39,8.69,17.65,8.11,16.79,8.07z M18.35,14.09l-4.81,2.13l-4.62-1.78L9.1,14l3.09-0.54L9.18,6.68c-0.11-0.25,0-0.55,0.25-0.66c0.25-0.11,0.55,0,0.66,0.25 l1.82,4.11l1.96-0.87l2.84,0.05c0.22,0.01,0.4,0.16,0.46,0.36L18.35,14.09z"/></g></svg>
